assets/intro/search.svg

<svg width="288" height="201" viewBox="0 0 288 201" fill="none" xmlns="http://www.w3.org/2000/svg">
<g clip-path="url(#clip0_4048_37)">
<path d="M274.595 39.0995H13.4048C9.85086 39.0954 6.44363 37.6781 3.93061 35.1584C1.41759 32.6387 0.00401405 29.2224 0 25.659V13.4404C0.00401405 9.87705 1.41759 6.46076 3.93061 3.94106C6.44363 1.42136 9.85086 0.00402591 13.4048 0H274.595C278.149 0.00402472 281.556 1.42136 284.069 3.94106C286.582 6.46076 287.996 9.87705 288 13.4404V25.659C287.996 29.2224 286.582 32.6387 284.069 35.1584C281.556 37.6781 278.149 39.0954 274.595 39.0995ZM13.4048 0.814568C10.0663 0.818363 6.86552 2.14981 4.50481 4.5168C2.1441 6.88379 0.816191 10.093 0.812407 13.4404V25.659C0.816191 29.0065 2.1441 32.2157 4.50481 34.5827C6.86552 36.9497 10.0663 38.2811 13.4048 38.2849H274.595C277.934 38.2811 281.134 36.9497 283.495 34.5827C285.856 32.2157 287.184 29.0065 287.188 25.659V13.4404C287.184 10.093 285.856 6.88379 283.495 4.5168C281.134 2.14981 277.934 0.818363 274.595 0.814568H13.4048Z" fill="#3F3D56"/>
<path d="M229.506 79.6824H56.0563C51.7938 79.6824 48.3384 83.147 48.3384 87.4208V87.4208C48.3384 91.6946 51.7938 95.1592 56.0563 95.1592H229.506C233.769 95.1592 237.224 91.6946 237.224 87.4208C237.224 83.147 233.769 79.6824 229.506 79.6824Z" fill="currentColor"/>
<path d="M229.506 128.891H56.0563C51.7938 128.891 48.3384 132.356 48.3384 136.63V136.63C48.3384 140.903 51.7938 144.368 56.0563 144.368H229.506C233.769 144.368 237.224 140.903 237.224 136.63C237.224 132.356 233.769 128.891 229.506 128.891Z" fill="#E6E6E6"/>
<path d="M229.506 178.1H56.0563C51.7938 178.1 48.3384 181.565 48.3384 185.838V185.838C48.3384 190.112 51.7938 193.577 56.0563 193.577H229.506C233.769 193.577 237.224 190.112 237.224 185.838C237.224 181.565 233.769 178.1 229.506 178.1Z" fill="#E6E6E6"/>
<path d="M262.609 27.9098C262.424 28.1746 262.142 28.3549 261.825 28.411C261.507 28.4672 261.18 28.3946 260.916 28.2091L254.284 23.5823C254.02 23.3969 253.841 23.1139 253.785 22.7955C253.729 22.4772 253.801 22.1496 253.986 21.8848C254.171 21.62 254.453 21.4397 254.771 21.3835C255.088 21.3274 255.415 21.4 255.679 21.5854L262.311 26.2123C262.575 26.3977 262.755 26.6807 262.811 26.9991C262.867 27.3174 262.794 27.645 262.609 27.9098Z" fill="currentColor"/>
<path d="M255.08 22.653C254.101 24.0549 252.73 25.1342 251.139 25.7544C249.548 26.3747 247.81 26.5081 246.144 26.1377C244.477 25.7673 242.958 24.9098 241.778 23.6736C240.598 22.4375 239.809 20.8781 239.513 19.1928C239.217 17.5075 239.425 15.7719 240.113 14.2056C240.8 12.6392 241.935 11.3123 243.375 10.3928C244.814 9.47333 246.493 9.00246 248.2 9.03978C249.906 9.07709 251.563 9.62091 252.961 10.6025C254.834 11.9203 256.109 13.9292 256.506 16.1884C256.903 18.4475 256.391 20.7724 255.08 22.653ZM242.71 13.9681C241.975 15.0195 241.569 16.2656 241.541 17.5487C241.513 18.8319 241.865 20.0946 242.553 21.177C243.241 22.2595 244.233 23.1131 245.405 23.63C246.577 24.1469 247.875 24.3039 249.135 24.081C250.396 23.8581 251.562 23.2654 252.487 22.3779C253.412 21.4903 254.053 20.3478 254.33 19.0947C254.607 17.8417 254.507 16.5344 254.043 15.3382C253.58 14.142 252.772 13.1106 251.724 12.3744C250.317 11.3892 248.578 11.0037 246.888 11.3024C245.198 11.6012 243.695 12.5599 242.71 13.9681Z" fill="currentColor"/>
<path d="M267.08 102.542H20.9194C20.8117 102.542 20.7083 102.499 20.6322 102.423C20.556 102.346 20.5132 102.243 20.5132 102.135C20.5132 102.027 20.556 101.923 20.6322 101.847C20.7083 101.77 20.8117 101.728 20.9194 101.728H267.08C267.188 101.728 267.291 101.77 267.367 101.847C267.444 101.923 267.486 102.027 267.486 102.135C267.486 102.243 267.444 102.346 267.367 102.423C267.291 102.499 267.188 102.542 267.08 102.542Z" fill="#3F3D56"/>
<path d="M267.08 151.771H20.9194C20.8117 151.771 20.7083 151.728 20.6322 151.652C20.556 151.575 20.5132 151.472 20.5132 151.364C20.5132 151.256 20.556 151.152 20.6322 151.076C20.7083 150.999 20.8117 150.957 20.9194 150.957H267.08C267.188 150.957 267.291 150.999 267.367 151.076C267.444 151.152 267.486 151.256 267.486 151.364C267.486 151.472 267.444 151.575 267.367 151.652C267.291 151.728 267.188 151.771 267.08 151.771Z" fill="#3F3D56"/>
<path d="M267.08 201H20.9194C20.8117 201 20.7083 200.957 20.6322 200.881C20.556 200.804 20.5132 200.701 20.5132 200.593C20.5132 200.485 20.556 200.381 20.6322 200.305C20.7083 200.228 20.8117 200.185 20.9194 200.185H267.08C267.188 200.185 267.291 200.228 267.367 200.305C267.444 200.381 267.486 200.485 267.486 200.593C267.486 200.701 267.444 200.804 267.367 200.881C267.291 200.957 267.188 201 267.08 201Z" fill="#3F3D56"/>
</g>
<defs>
<clipPath id="clip0_4048_37">
<rect width="288" height="201" fill="white"/>
</clipPath>
</defs>
</svg>

<svg width="288" height="201" viewBox="0 0 288 201" xmlns="http://www.w3.org/2000/svg"><g clip-path="url(#a)"><path d="M274.595 39.1H13.405a13.402 13.402 0 0 1-9.474-3.942A13.474 13.474 0 0 1 0 25.66V13.44a13.474 13.474 0 0 1 3.93-9.499A13.402 13.402 0 0 1 13.406 0h261.19a13.401 13.401 0 0 1 9.474 3.941 13.474 13.474 0 0 1 3.931 9.5v12.218a13.474 13.474 0 0 1-3.931 9.5 13.402 13.402 0 0 1-9.474 3.94ZM13.405.815a12.59 12.59 0 0 0-8.9 3.702A12.657 12.657 0 0 0 .812 13.44V25.66a12.657 12.657 0 0 0 3.693 8.924 12.59 12.59 0 0 0 8.9 3.702h261.19a12.59 12.59 0 0 0 8.9-3.702 12.658 12.658 0 0 0 3.693-8.924V13.44a12.657 12.657 0 0 0-3.693-8.923 12.59 12.59 0 0 0-8.9-3.702H13.405Z" fill="#3F3D56"/><path d="M229.506 79.682H56.056c-4.262 0-7.718 3.465-7.718 7.739s3.456 7.738 7.718 7.738h173.45c4.263 0 7.718-3.464 7.718-7.738 0-4.274-3.455-7.739-7.718-7.739Z" fill="currentColor"/><path d="M229.506 128.891H56.056c-4.262 0-7.718 3.465-7.718 7.739 0 4.273 3.456 7.738 7.718 7.738h173.45c4.263 0 7.718-3.465 7.718-7.738 0-4.274-3.455-7.739-7.718-7.739ZM229.506 178.1H56.056c-4.262 0-7.718 3.465-7.718 7.738 0 4.274 3.456 7.739 7.718 7.739h173.45c4.263 0 7.718-3.465 7.718-7.739 0-4.273-3.455-7.738-7.718-7.738Z" fill="#E6E6E6"/><path d="M262.609 27.91a1.215 1.215 0 0 1-1.693.3l-6.632-4.628a1.218 1.218 0 0 1-.298-1.697 1.215 1.215 0 0 1 1.693-.3l6.632 4.627a1.22 1.22 0 0 1 .298 1.698Z" fill="currentColor"/><path d="M255.08 22.653a8.63 8.63 0 0 1-3.941 3.101 8.606 8.606 0 0 1-9.361-2.08 8.671 8.671 0 0 1-1.665-9.468 8.64 8.64 0 0 1 3.262-3.813 8.61 8.61 0 0 1 9.586.21 8.678 8.678 0 0 1 2.119 12.05Zm-12.37-8.685a6.5 6.5 0 0 0-.157 7.209 6.476 6.476 0 0 0 2.852 2.453 6.456 6.456 0 0 0 7.082-1.252 6.506 6.506 0 0 0-.763-10.004 6.467 6.467 0 0 0-9.014 1.594Z" fill="currentColor"/><path d="M267.08 102.542H20.92a.407.407 0 0 1 0-.814h246.16a.404.404 0 0 1 .406.407.406.406 0 0 1-.406.407ZM267.08 151.771H20.92a.407.407 0 0 1 0-.814h246.16a.404.404 0 0 1 .406.407.406.406 0 0 1-.406.407ZM267.08 201H20.92a.407.407 0 0 1 0-.815h246.16c.108 0 .211.043.287.12a.406.406 0 0 1-.287.695Z" fill="#3F3D56"/></g><defs><clipPath id="a"><path fill="#fff" d="M0 0h288v201H0z"/></clipPath></defs></svg>
